Yaru++/mimetypes/48/application-x-shellscript.svg

<svg height="48" viewBox="0 0 12.699375 12.699376" width="48" xmlns="http://www.w3.org/2000/svg" xmlns:xlink="http://www.w3.org/1999/xlink"><linearGradient id="a" gradientUnits="userSpaceOnUse" x1="6.350072" x2="6.350072" y1=".396856" y2="12.03795"><stop offset="0" stop-color="#fff"/><stop offset=".125" stop-color="#fff" stop-opacity=".098039"/><stop offset=".92500001" stop-color="#fff" stop-opacity=".098039"/><stop offset="1" stop-color="#fff" stop-opacity=".498039"/></linearGradient><linearGradient id="b" gradientTransform="matrix(0 -.02997086 .02997 0 -3.039509 13.625372)" gradientUnits="userSpaceOnUse" x1="459.03448" x2="35.310345" y1="419.23337" y2="207.36522"><stop offset="0" stop-color="#f2f2f2"/><stop offset="1" stop-color="#f9f9f9"/></linearGradient><path d="m4.1621983.39685694c-.5881134-.0089584-1.0513178.0135407-1.4323996.0775109-.3810844.0639688-.6929229.1839554-.9213476.4118407-.2284221.22788546-.3489841.53958346-.4123567.92082876-.0633725.3812456-.0757438.8453924-.07286 1.4349839v3.239953 3.2415031c-.00286.5886857.00955 1.0525967.07286 1.4334327.063373.381246.1839346.692944.4123567.920829.2284247.227885.5402632.347873.9213476.411841.3810845.06397.8442175.07751 1.4323996.07751h4.3757445c.5881822 0 1.0510744-.01352 1.4313683-.07751.3802929-.064.6911789-.18439.9187599-.412357.227583-.227967.347433-.539443.411324-.920313.06389-.380867.07751-.844073.07751-1.4334327v-3.2415031-3.1748438l-2.8389622-2.84361426z" opacity=".1"/><path d="m4.1623597.39685694c-2.3346161 0-2.5858177.2397933-2.5743751 2.57913196v3.241415 3.2414154c-.011456 2.3393377.239759 2.5791317 2.5743751 2.5791317h4.3757789c2.3346164 0 2.5743754-.239767 2.5743754-2.5791317v-3.2414154l-.000178-3.1748438-2.6457028-2.64570316z" fill="none" opacity=".2" stroke="#000" stroke-width=".529141"/><path d="m4.1623597.39685694c-2.3346161 0-2.5858177.2397933-2.5743751 2.57913196v3.241415 3.2414154c-.011456 2.3393377.239759 2.5791317 2.5743751 2.5791317h4.3757789c2.3346164 0 2.5743754-.239767 2.5743754-2.5791317v-3.2414154l-.000178-3.1748438-2.6457028-2.64570316z" fill="url(#b)"/><path d="m3.0520771 5.0843974-.1273403.3831031 1.29277.5185446-1.29277.5185473.1273403.3831031 1.6632452-.7042915v-.3947098zm1.7104763 2.3295839v.390845h1.9791183v-.390845z" fill="#999"/><path d="m1.5878047 6.2174039v3.2415034c-.011456 2.3393377.2397775 2.5790437 2.5743936 2.5790437h4.3757445c2.3346162 0 2.5743932-.23968 2.5743932-2.5790437v-3.2415034z" fill="#fff" opacity=".2"/><path d="m6.3500706.39685694v11.64109406h2.1878722c2.3346162 0 2.5743932-.23968 2.5743932-2.5790437v-3.2415034-3.1748438l-2.6457028-2.64570316z" fill="#fff" opacity=".1"/><path d="m4.1621983.39685694c-2.3346161 0-2.5858362.2397052-2.5743936 2.57904386v3.2415031 3.2415034c-.011456 2.3393377.2397775 2.5790437 2.5743936 2.5790437h4.3757445c2.3346162 0 2.5743932-.23968 2.5743932-2.5790437v-3.2415034-3.1748438h-.26457v3.1748438 3.2415034c0 .5803217-.01624 1.0240707-.07027 1.3461027-.05402.322035-.13987.509124-.264054.633525-.124184.124387-.310701.2105-.6319715.26457-.321273.05406-.7643966.07028-1.3435225.07028h-4.3757497c-.5791259 0-1.0227997-.01619-1.3450729-.07028-.3222704-.0541-.5102953-.14009-.6350719-.26457-.124774-.124489-.2105874-.311352-.2640518-.633006-.053467-.321654-.0684681-.765511-.0656266-1.3455887v-.000529-3.2420074-3.2420198-.0005292c-.00283-.5800778.01217-1.0239334.065627-1.3455882.053467-.3216548.1392778-.5085248.2640518-.63300506.124774-.1244804.31332-.2104737.6355905-.2645704.3222705-.0540718.7654284-.070264 1.3445543-.070264h4.3044349v-.2645703z" fill="url(#a)" opacity=".4"/><path d="m11.112336 3.3071304v-.2645703l-2.6457028-2.64570316h-.2645704v1.11359066.042668.022917c0 1.505929.201592 1.7381397 1.7109763 1.730759z" opacity=".2"/><path d="m11.112336 3.0422214-2.6457028-2.64536506v.98127596.042668.022917c0 1.505929.069402 1.6058848 1.5787858 1.598504z" fill="#faf8f6"/></svg>

<?xml version="1.0" encoding="UTF-8" standalone="no"?>
<svg
   xmlns:dc="http://purl.org/dc/elements/1.1/"
   xmlns:cc="http://creativecommons.org/ns#"
   xmlns:rdf="http://www.w3.org/1999/02/22-rdf-syntax-ns#"
   xmlns:svg="http://www.w3.org/2000/svg"
   xmlns="http://www.w3.org/2000/svg"
   xmlns:xlink="http://www.w3.org/1999/xlink"
   xmlns:sodipodi="http://sodipodi.sourceforge.net/DTD/sodipodi-0.dtd"
   xmlns:inkscape="http://www.inkscape.org/namespaces/inkscape"
   height="48"
   viewBox="0 0 12.699375 12.699376"
   width="48"
   version="1.1"
   id="svg33"
   sodipodi:docname="application-x-shellscript.svg"
   inkscape:version="0.92.5 (2060ec1f9f, 2020-04-08)">
  <metadata
     id="metadata39">
    <rdf:RDF>
      <cc:Work
         rdf:about="">
        <dc:format>image/svg+xml</dc:format>
        <dc:type
           rdf:resource="http://purl.org/dc/dcmitype/StillImage" />
      </cc:Work>
    </rdf:RDF>
  </metadata>
  <defs
     id="defs37">
    <linearGradient
       gradientTransform="matrix(0.26457032,0,0,0.26457032,-84.662118,-16.006504)"
       inkscape:collect="always"
       xlink:href="#linearGradient927"
       id="linearGradient1004"
       x1="344"
       y1="62"
       x2="344"
       y2="106"
       gradientUnits="userSpaceOnUse" />
    <linearGradient
       inkscape:collect="always"
       id="linearGradient927">
      <stop
         style="stop-color:#ffffff;stop-opacity:1;"
         offset="0"
         id="stop923" />
      <stop
         id="stop933"
         offset="0.125"
         style="stop-color:#ffffff;stop-opacity:0.09803922" />
      <stop
         id="stop931"
         offset="0.92500001"
         style="stop-color:#ffffff;stop-opacity:0.09803922" />
      <stop
         style="stop-color:#ffffff;stop-opacity:0.49803922"
         offset="1"
         id="stop925" />
    </linearGradient>
    <linearGradient
       inkscape:collect="always"
       xlink:href="#linearGradient4338"
       id="linearGradient1024"
       gradientUnits="userSpaceOnUse"
       gradientTransform="matrix(0,-0.02997086,0.02997,0,-3.039509,13.625372)"
       x1="459.03448"
       y1="419.23337"
       x2="35.310345"
       y2="207.36522" />
    <linearGradient
       inkscape:collect="always"
       id="linearGradient4338">
      <stop
         style="stop-color:#f2f2f2;stop-opacity:1"
         offset="0"
         id="stop4340" />
      <stop
         style="stop-color:#f9f9f9;stop-opacity:1"
         offset="1"
         id="stop4342" />
    </linearGradient>
  </defs>
  <sodipodi:namedview
     pagecolor="#ffffff"
     bordercolor="#666666"
     borderopacity="1"
     objecttolerance="10"
     gridtolerance="10"
     guidetolerance="10"
     inkscape:pageopacity="0"
     inkscape:pageshadow="2"
     inkscape:window-width="834"
     inkscape:window-height="480"
     id="namedview35"
     showgrid="false"
     inkscape:zoom="4.9166667"
     inkscape:cx="24"
     inkscape:cy="24"
     inkscape:window-x="0"
     inkscape:window-y="28"
     inkscape:window-maximized="0"
     inkscape:current-layer="svg33" />
  <linearGradient
     id="a"
     gradientUnits="userSpaceOnUse"
     x1="344"
     x2="344"
     y1="62"
     y2="106">
    <stop
       offset="0"
       stop-color="#fff"
       id="stop2" />
    <stop
       offset=".125"
       stop-color="#fff"
       stop-opacity=".098039"
       id="stop4" />
    <stop
       offset=".92500001"
       stop-color="#fff"
       stop-opacity=".098039"
       id="stop6" />
    <stop
       offset="1"
       stop-color="#fff"
       stop-opacity=".498039"
       id="stop8" />
  </linearGradient>
  <clipPath
     id="b">
    <path
       d="m335.73108 62c-8.82418 0-9.77365.90635-9.7304 9.74838v12.25162 12.25162c-.0433 8.84203.90622 9.74838 9.7304 9.74838h16.53919c8.82418 0 9.7304-.90625 9.7304-9.74838v-12.25162-12.25162c0-8.84213-.90622-9.74838-9.7304-9.74838z"
       id="path11" />
  </clipPath>
  <linearGradient
     id="c"
     gradientTransform="matrix(0 -.02997086 .02997 0 -3.039509 13.625372)"
     gradientUnits="userSpaceOnUse"
     x1="459.03448"
     x2="35.310345"
     y1="419.23337"
     y2="207.36522">
    <stop
       offset="0"
       stop-color="#f2f2f2"
       id="stop14" />
    <stop
       offset="1"
       stop-color="#f9f9f9"
       id="stop16" />
  </linearGradient>
  <path
     style="color:#000000;font-style:normal;font-variant:normal;font-weight:normal;font-stretch:normal;font-size:medium;line-height:normal;font-family:sans-serif;font-variant-ligatures:normal;font-variant-position:normal;font-variant-caps:normal;font-variant-numeric:normal;font-variant-alternates:normal;font-feature-settings:normal;text-indent:0;text-align:start;text-decoration:none;text-decoration-line:none;text-decoration-style:solid;text-decoration-color:#000000;letter-spacing:normal;word-spacing:normal;text-transform:none;writing-mode:lr-tb;direction:ltr;text-orientation:mixed;dominant-baseline:auto;baseline-shift:baseline;text-anchor:start;white-space:normal;shape-padding:0;clip-rule:nonzero;display:inline;overflow:visible;visibility:visible;opacity:0.1;isolation:auto;mix-blend-mode:normal;color-interpolation:sRGB;color-interpolation-filters:linearRGB;solid-color:#000000;solid-opacity:1;vector-effect:none;fill:#000000;fill-opacity:1;fill-rule:nonzero;stroke:none;stroke-width:0.52914065;stroke-linecap:butt;stroke-linejoin:miter;stroke-miterlimit:4;stroke-dasharray:none;stroke-dashoffset:0;stroke-opacity:1;marker:none;color-rendering:auto;image-rendering:auto;shape-rendering:auto;text-rendering:auto;enable-background:accumulate"
     d="M 4.1621983,0.39685694 C 3.5740849,0.38789854 3.1108805,0.41039764 2.7297987,0.47436784 2.3487143,0.53833664 2.0368758,0.65832324 1.8084511,0.88620854 1.580029,1.114094 1.459467,1.425792 1.3960944,1.8070373 1.3327219,2.1882829 1.3203506,2.6524297 1.3232344,3.2420212 v 3.239953 3.2415031 c -0.00286,0.5886857 0.00955,1.0525967 0.07286,1.4334327 0.063373,0.381246 0.1839346,0.692944 0.4123567,0.920829 0.2284247,0.227885 0.5402632,0.347873 0.9213476,0.411841 0.3810845,0.06397 0.8442175,0.07751 1.4323996,0.07751 h 4.3757445 c 0.5881822,0 1.0510744,-0.01352 1.4313683,-0.07751 0.3802929,-0.064 0.6911789,-0.18439 0.9187599,-0.412357 0.227583,-0.227967 0.347433,-0.539443 0.411324,-0.920313 0.06389,-0.380867 0.07751,-0.844073 0.07751,-1.4334327 V 6.4819742 3.3071304 L 8.5379428,0.46351614 Z"
     id="path1020"
     inkscape:connector-curvature="0"
     sodipodi:nodetypes="sccsccccccsscccscccs" />
  <path
     style="color:#000000;display:inline;overflow:visible;visibility:visible;opacity:0.2;fill:none;fill-opacity:1;fill-rule:nonzero;stroke:#000000;stroke-width:0.52914065;stroke-miterlimit:4;stroke-dasharray:none;stroke-opacity:1;marker:none;enable-background:accumulate"
     d="m 4.1623597,0.39685694 c -2.3346161,0 -2.5858177,0.2397933 -2.5743751,2.57913196 v 3.241415 3.2414154 c -0.011456,2.3393377 0.239759,2.5791317 2.5743751,2.5791317 h 4.3757789 c 2.3346164,0 2.5743754,-0.239767 2.5743754,-2.5791317 V 6.2174039 L 11.112336,3.0425601 8.4666332,0.39685694 Z"
     id="path958"
     inkscape:connector-curvature="0"
     sodipodi:nodetypes="scccssscccs" />
  <path
     style="color:#000000;display:inline;overflow:visible;visibility:visible;fill:url(#linearGradient1024);fill-opacity:1;fill-rule:nonzero;stroke:none;stroke-width:0.26457033;marker:none;enable-background:accumulate"
     d="m 4.1623597,0.39685694 c -2.3346161,0 -2.5858177,0.2397933 -2.5743751,2.57913196 v 3.241415 3.2414154 c -0.011456,2.3393377 0.239759,2.5791317 2.5743751,2.5791317 h 4.3757789 c 2.3346164,0 2.5743754,-0.239767 2.5743754,-2.5791317 V 6.2174039 L 11.112336,3.0425601 8.4666332,0.39685694 Z"
     id="path964"
     inkscape:connector-curvature="0"
     sodipodi:nodetypes="scccssscccs" />
  <path
     style="font-style:normal;font-variant:normal;font-weight:500;font-stretch:normal;font-size:299.10678101px;line-height:125%;font-family:Ubuntu;-inkscape-font-specification:'Ubuntu Medium';text-align:center;letter-spacing:0px;word-spacing:0px;writing-mode:lr-tb;text-anchor:middle;display:inline;fill:#999999;fill-opacity:1;stroke:none;stroke-width:0.26457033;enable-background:new"
     d="M 3.0520771,5.0843974 2.9247368,5.4675005 4.2175068,5.9860451 2.9247368,6.5045924 3.0520771,6.8876955 4.7153223,6.183404 V 5.7886942 Z m 1.7104763,2.3295839 v 0.390845 h 1.9791183 v -0.390845 z"
     id="path969-6"
     inkscape:connector-curvature="0"
     sodipodi:nodetypes="ccccccccccccc" />
  <path
     style="color:#000000;display:inline;overflow:visible;visibility:visible;opacity:0.2;fill:#ffffff;fill-opacity:1;fill-rule:nonzero;stroke:none;stroke-width:0.26457033;marker:none;enable-background:accumulate"
     d="m 1.5878047,6.2174039 v 3.2415034 c -0.011456,2.3393377 0.2397775,2.5790437 2.5743936,2.5790437 h 4.3757445 c 2.3346162,0 2.5743932,-0.23968 2.5743932,-2.5790437 V 6.2174039 Z"
     id="path1006"
     inkscape:connector-curvature="0" />
  <path
     style="color:#000000;display:inline;overflow:visible;visibility:visible;opacity:0.1;fill:#ffffff;fill-opacity:1;fill-rule:nonzero;stroke:none;stroke-width:0.26457033;marker:none;enable-background:accumulate"
     d="M 6.3500706,0.39685694 V 12.037951 h 2.1878722 c 2.3346162,0 2.5743932,-0.23968 2.5743932,-2.5790437 V 6.2174039 3.0425601 L 8.4666332,0.39685694 Z"
     id="path1013"
     inkscape:connector-curvature="0"
     sodipodi:nodetypes="ccsscccc" />
  <path
     style="color:#000000;font-style:normal;font-variant:normal;font-weight:normal;font-stretch:normal;font-size:medium;line-height:normal;font-family:sans-serif;font-variant-ligatures:normal;font-variant-position:normal;font-variant-caps:normal;font-variant-numeric:normal;font-variant-alternates:normal;font-feature-settings:normal;text-indent:0;text-align:start;text-decoration:none;text-decoration-line:none;text-decoration-style:solid;text-decoration-color:#000000;letter-spacing:normal;word-spacing:normal;text-transform:none;writing-mode:lr-tb;direction:ltr;text-orientation:mixed;dominant-baseline:auto;baseline-shift:baseline;text-anchor:start;white-space:normal;shape-padding:0;clip-rule:nonzero;display:inline;overflow:visible;visibility:visible;opacity:0.4;isolation:auto;mix-blend-mode:normal;color-interpolation:sRGB;color-interpolation-filters:linearRGB;solid-color:#000000;solid-opacity:1;vector-effect:none;fill:url(#linearGradient1004);fill-opacity:1;fill-rule:nonzero;stroke:none;stroke-width:0.52914065;stroke-linecap:butt;stroke-linejoin:miter;stroke-miterlimit:4;stroke-dasharray:none;stroke-dashoffset:0;stroke-opacity:1;marker:none;color-rendering:auto;image-rendering:auto;shape-rendering:auto;text-rendering:auto;enable-background:accumulate"
     clip-path="none"
     d="m 4.1621983,0.39685694 c -2.3346161,0 -2.5858362,0.2397052 -2.5743936,2.57904386 v 3.2415031 3.2415034 c -0.011456,2.3393377 0.2397775,2.5790437 2.5743936,2.5790437 h 4.3757445 c 2.3346162,0 2.5743932,-0.23968 2.5743932,-2.5790437 V 6.2174039 3.0425601 h -0.26457 v 3.1748438 3.2415034 c 0,0.5803217 -0.01624,1.0240707 -0.07027,1.3461027 -0.05402,0.322035 -0.13987,0.509124 -0.264054,0.633525 -0.124184,0.124387 -0.310701,0.2105 -0.6319715,0.26457 -0.321273,0.05406 -0.7643966,0.07028 -1.3435225,0.07028 H 4.1621983 c -0.5791259,0 -1.0227997,-0.01619 -1.3450729,-0.07028 C 2.494855,11.649005 2.3068301,11.563015 2.1820535,11.438535 2.0572795,11.314046 1.9714661,11.127183 1.9180017,10.805529 1.8645347,10.483875 1.8495336,10.040018 1.8523751,9.4599403 V 9.4594113 6.2174039 2.9753841 2.9748549 c -0.00283,-0.5800778 0.01217,-1.0239334 0.065627,-1.3455882 0.053467,-0.3216548 0.1392778,-0.5085248 0.2640518,-0.63300506 0.124774,-0.1244804 0.31332,-0.2104737 0.6355905,-0.2645704 0.3222705,-0.0540718 0.7654284,-0.070264 1.3445543,-0.070264 h 4.3044349 v -0.2645703 z"
     id="path990"
     inkscape:connector-curvature="0" />
  <path
     inkscape:connector-curvature="0"
     style="color:#000000;display:inline;overflow:visible;visibility:visible;opacity:0.2;fill:#000000;fill-opacity:1;fill-rule:nonzero;stroke:none;stroke-width:0.06614864;marker:none;enable-background:accumulate"
     d="M 11.112336,3.3071304 V 3.0425601 L 8.4666332,0.39685694 H 8.2020628 v 1.11359066 0.042668 0.022917 c 0,1.505929 0.201592,1.7381397 1.7109763,1.730759 z"
     id="rect4158-0-3-62-2"
     sodipodi:nodetypes="ccccccscc" />
  <path
     inkscape:connector-curvature="0"
     style="color:#000000;display:inline;overflow:visible;visibility:visible;fill:#faf8f6;fill-opacity:1;fill-rule:nonzero;stroke:none;stroke-width:0.06614864;marker:none;enable-background:accumulate"
     d="M 11.112336,3.0422214 8.4666332,0.39685634 v 0.98127596 0.042668 0.022917 c 0,1.505929 0.069402,1.6058848 1.5787858,1.598504 z"
     id="rect4158-0-3-62"
     sodipodi:nodetypes="ccccscc" />
</svg>
